X: 555
M: 6/8
L: 1/8
K: G
V: 1
|:\
|:\
(B/c/dG) (A/B/cG) | FAF DAc | Bdb dcB | Aca cBA | BGE DGF | GDB, G,3 :|
V: 2 clef=bass middle=d
|: g3 zzg | f3 zzf | g3 G3 | g3 G3 | g3 a3 | f2d g2d | g3
a3 | d6 :||: f3 g3 | f3 g3 | c3 B3 | E2e g2e | f3 gdB | G2g afd |
g3 c3 | d3 fdf | g3 c3 | d3 f3 | g3 G3 | A3 f3 | g2c d2D | G6 :|

